svg/heart_broken_outline.svg

<svg xmlns="http://www.w3.org/2000/svg" viewBox="0 0 24 24"><path d="M7.5 5c.2 0 .4 0 .6.1l2.4 4.1-3.7 4.6C5.1 11.8 4 10.2 4 8.5 4 6.5 5.5 5 7.5 5m0-2C4.4 3 2 5.4 2 8.5c0 3.8 3.4 6.9 8.6 11.5l1.4 1.3-3-7 4-5-3.6-6C8.8 3.1 8.2 3 7.5 3m9 2c2 0 3.5 1.5 3.5 3.5 0 2.6-2.6 5.2-6.6 8.8l-.3-2.3 4.8-5.3-2.3-4.5c.3-.2.6-.2.9-.2m0-2c-1.3 0-2.6.5-3.6 1.3l2.6 5.1-4.5 5 1 7 1.4-1.3c5.2-4.7 8.6-7.8 8.6-11.5C22 5.4 19.6 3 16.5 3"/></svg>

<?xml version="1.0" encoding="UTF-8"?><!DOCTYPE svg PUBLIC "-//W3C//DTD SVG 1.1//EN" "http://www.w3.org/Graphics/SVG/1.1/DTD/svg11.dtd"><svg xmlns="http://www.w3.org/2000/svg" xmlns:xlink="http://www.w3.org/1999/xlink" version="1.1" id="mdi-heart-broken-outline" width="24" height="24" viewBox="0 0 24 24"><path d="M7.5,5C7.7,5 7.9,5 8.1,5.1L10.5,9.2L6.8,13.8C5.1,11.8 4,10.2 4,8.5C4,6.5 5.5,5 7.5,5M7.5,3C4.4,3 2,5.4 2,8.5C2,12.3 5.4,15.4 10.6,20L12,21.3L9,14.3L13,9.3L9.4,3.3C8.8,3.1 8.2,3 7.5,3M16.5,5C18.5,5 20,6.5 20,8.5C20,11.1 17.4,13.7 13.4,17.3L13.1,15L17.9,9.7L15.6,5.2C15.9,5 16.2,5 16.5,5M16.5,3C15.2,3 13.9,3.5 12.9,4.3L15.5,9.4L11,14.4L12,21.4L13.4,20.1C18.6,15.4 22,12.3 22,8.6C22,5.4 19.6,3 16.5,3Z" /></svg>
